icons/file-badge-16.svg

<svg xmlns="http://www.w3.org/2000/svg" width="16" height="16" viewBox="0 0 16 16"><path d="M2.75 1.5a.25.25 0 00-.25.25v11.5c0 .138.112.25.25.25h3.5a.75.75 0 010 1.5h-3.5A1.75 1.75 0 011 13.25V1.75C1 .784 1.784 0 2.75 0h8a1.75 1.75 0 011.508.862.75.75 0 11-1.289.768.25.25 0 00-.219-.13h-8z"/><path fill-rule="evenodd" d="M8 7a4 4 0 116.49 3.13l.995 4.973a.75.75 0 01-.991.852l-2.409-.876a.25.25 0 00-.17 0l-2.409.876a.75.75 0 01-.991-.852l.994-4.973A3.993 3.993 0 018 7zm4-2.5a2.5 2.5 0 100 5 2.5 2.5 0 000-5zm0 6.5a4 4 0 001.104-.154l.649 3.243-1.155-.42c-.386-.14-.81-.14-1.196 0l-1.155.42.649-3.243A4 4 0 0012 11z"/></svg>

<svg xmlns="http://www.w3.org/2000/svg" width="16" height="16" viewBox="0 0 16 16">
  <defs/>
  <path d="M2.75,1.5 A0.25 0.25 0 0 0 2.5,1.75 L2.5,13.25 C2.5,13.388 2.612,13.5 2.75,13.5 L6.25,13.5 A0.75 0.75 0 0 1 6.25,15 L2.75,15 A1.75 1.75 0 0 1 1,13.25 L1,1.75 C1,0.784 1.784,0 2.75,0 L10.75,0 A1.75 1.75 0 0 1 12.258,0.862 A0.75 0.75 0 1 1 10.969,1.63 A0.25 0.25 0 0 0 10.75,1.5 L2.75,1.5 Z"/>
  <path d="M8,7 C8,5.133 9.291,3.514 11.111,3.1 C12.931,2.685 14.797,3.584 15.605,5.267 C16.414,6.95 15.951,8.968 14.49,10.13 L15.485,15.103 C15.538,15.369 15.444,15.642 15.238,15.819 C15.033,15.995 14.749,16.047 14.494,15.955 L12.085,15.079 C12.03,15.059 11.97,15.059 11.915,15.079 L9.506,15.955 C9.251,16.047 8.967,15.995 8.762,15.819 C8.556,15.642 8.462,15.369 8.515,15.103 L9.509,10.13 C8.555,9.372 7.999,8.219 8,7 Z M12,4.5 C10.619,4.5 9.5,5.619 9.5,7 C9.5,8.381 10.619,9.5 12,9.5 C13.381,9.5 14.5,8.381 14.5,7 C14.5,5.619 13.381,4.5 12,4.5 Z M12,11 C11.627,11 11.255,10.949 10.896,10.846 L10.247,14.089 L11.402,13.669 C11.788,13.529 12.212,13.529 12.598,13.669 L13.753,14.089 L13.104,10.846 C12.745,10.949 12.373,11 12,11 Z"/>
</svg>
